svg/Mapbox-maki/mobilephone-12.svg

<svg xmlns="http://www.w3.org/2000/svg" viewBox="0 0 12 12"><g transform="translate(0-1040.36)"><path d="m5 1v1h-1v8h5.03v-8h-3.03v-1h-1z" transform="translate(0 1040.36)" opacity=".3" color="#000" stroke-width="2" fill="#fff" stroke-linejoin="round" stroke="#fff"/><g fill="#44444f" fill-opacity=".941"><rect width="5.02" height="8" x="4" y="-1050.36" transform="scale(1-1)" rx="0"/><path d="m5 1041.36h1v1h-1z"/></g><g fill="#fff"><path transform="scale(1-1)" d="m5-1045.36h3v2h-3z"/><rect width="1" height="1" x="5" y="1046.36" rx="0"/><rect y="1046.36" x="7" height="1" width="1" rx="0"/><rect y="1048.36" x="5" height="1" width="1" rx="0"/><rect width="1" height="1" x="7" y="1048.36" rx="0"/></g></g></svg>

<?xml version="1.0" encoding="UTF-8" standalone="no"?>
<!-- Created with Inkscape (http://www.inkscape.org/) -->

<svg
   xmlns:dc="http://purl.org/dc/elements/1.1/"
   xmlns:cc="http://creativecommons.org/ns#"
   xmlns:rdf="http://www.w3.org/1999/02/22-rdf-syntax-ns#"
   xmlns:svg="http://www.w3.org/2000/svg"
   xmlns="http://www.w3.org/2000/svg"
   xmlns:sodipodi="http://sodipodi.sourceforge.net/DTD/sodipodi-0.dtd"
   xmlns:inkscape="http://www.inkscape.org/namespaces/inkscape"
   width="12"
   height="12"
   id="svg4764"
   version="1.1"
   inkscape:version="0.48.2 r9819"
   sodipodi:docname="mobilephone-12.svg">
  <defs
     id="defs4766" />
  <sodipodi:namedview
     id="base"
     pagecolor="#ffffff"
     bordercolor="#666666"
     borderopacity="1.0"
     inkscape:pageopacity="0.0"
     inkscape:pageshadow="2"
     inkscape:zoom="45.254834"
     inkscape:cx="3.1230664"
     inkscape:cy="6.5823301"
     inkscape:document-units="px"
     inkscape:current-layer="layer1"
     showgrid="true"
     showguides="true"
     inkscape:guide-bbox="true"
     inkscape:window-width="1440"
     inkscape:window-height="825"
     inkscape:window-x="0"
     inkscape:window-y="0"
     inkscape:window-maximized="1">
    <inkscape:grid
       type="xygrid"
       id="grid4772"
       empspacing="2"
       visible="true"
       enabled="true"
       snapvisiblegridlinesonly="true"
       spacingx="0.5px"
       spacingy="0.5px"
       color="#ff00ff"
       opacity="0.1254902" />
    <sodipodi:guide
       orientation="0,1"
       position="2,12"
       id="guide4789" />
    <sodipodi:guide
       orientation="1,0"
       position="12,10"
       id="guide4791" />
    <sodipodi:guide
       orientation="0,1"
       position="10,0"
       id="guide4793" />
    <sodipodi:guide
       orientation="1,0"
       position="0,9"
       id="guide4795" />
    <sodipodi:guide
       orientation="0,1"
       position="5,11"
       id="guide4797" />
    <sodipodi:guide
       orientation="1,0"
       position="11,7"
       id="guide4799" />
    <sodipodi:guide
       orientation="0,1"
       position="9,2"
       id="guide4801" />
    <sodipodi:guide
       orientation="1,0"
       position="2,5"
       id="guide4803" />
  </sodipodi:namedview>
  <metadata
     id="metadata4769">
    <rdf:RDF>
      <cc:Work
         rdf:about="">
        <dc:format>image/svg+xml</dc:format>
        <dc:type
           rdf:resource="http://purl.org/dc/dcmitype/StillImage" />
        <dc:title></dc:title>
      </cc:Work>
    </rdf:RDF>
  </metadata>
  <g
     inkscape:label="Layer 1"
     inkscape:groupmode="layer"
     id="layer1"
     transform="translate(0,-1040.3622)">
    <path
       style="fill:#ffffff;fill-opacity:1;stroke:#ffffff;opacity:0.29999999999999999;color:#000000;fill-rule:nonzero;stroke-width:2;stroke-linecap:butt;stroke-linejoin:round;stroke-miterlimit:4;stroke-opacity:1;stroke-dasharray:none;stroke-dashoffset:0;marker:none;visibility:visible;display:inline;overflow:visible;enable-background:accumulate"
       d="M 5 1 L 5 2 L 4 2 L 4 10 L 9.03125 10 L 9.03125 2 L 6 2 L 6 1 L 5 1 z "
       transform="translate(0,1040.3622)"
       id="rect8093" />
    <rect
       style="fill:#44444f;fill-opacity:0.94117647;stroke:none"
       id="rect7768"
       width="5.0230451"
       height="8"
       x="4"
       y="-1050.3622"
       ry="1.7382812e-05"
       transform="scale(1,-1)" />
    <rect
       style="fill:#44444f;fill-opacity:0.94117647;stroke:none"
       id="rect7770"
       width="1"
       height="1"
       x="5"
       y="1041.3622"
       ry="0" />
    <rect
       style="fill:#ffffff;fill-opacity:1;stroke:none"
       id="rect7772"
       width="3"
       height="2"
       x="5"
       y="-1045.3622"
       transform="scale(1,-1)" />
    <rect
       style="fill:#ffffff;fill-opacity:1;stroke:none"
       id="rect7774"
       width="1"
       height="1"
       x="5"
       y="1046.3622"
       ry="1.7382812e-05" />
    <rect
       ry="1.7382812e-05"
       y="1046.3622"
       x="7"
       height="1"
       width="1"
       id="rect7776"
       style="fill:#ffffff;fill-opacity:1;stroke:none" />
    <rect
       ry="1.7382812e-05"
       y="1048.3622"
       x="5"
       height="1"
       width="1"
       id="rect7778"
       style="fill:#ffffff;fill-opacity:1;stroke:none" />
    <rect
       style="fill:#ffffff;fill-opacity:1;stroke:none"
       id="rect7780"
       width="1"
       height="1"
       x="7"
       y="1048.3622"
       ry="1.7382812e-05" />
  </g>
</svg>
